src/apps/scalable/dianara.svg

<?xml version="1.0" encoding="UTF-8" standalone="no"?>
<svg
   xmlns:dc="http://purl.org/dc/elements/1.1/"
   xmlns:cc="http://creativecommons.org/ns#"
   xmlns:rdf="http://www.w3.org/1999/02/22-rdf-syntax-ns#"
   xmlns:svg="http://www.w3.org/2000/svg"
   xmlns="http://www.w3.org/2000/svg"
   xmlns:xlink="http://www.w3.org/1999/xlink"
   xmlns:sodipodi="http://sodipodi.sourceforge.net/DTD/sodipodi-0.dtd"
   xmlns:inkscape="http://www.inkscape.org/namespaces/inkscape"
   width="64"
   height="64"
   version="1.1"
   viewBox="0 0 64 64"
   id="svg61"
   sodipodi:docname="dianara.svg"
   inkscape:version="1.0.1 (3bc2e813f5, 2020-09-07)">
  <sodipodi:namedview
     pagecolor="#ffffff"
     bordercolor="#666666"
     borderopacity="1"
     objecttolerance="10"
     gridtolerance="10"
     guidetolerance="10"
     inkscape:pageopacity="0"
     inkscape:pageshadow="2"
     inkscape:window-width="1920"
     inkscape:window-height="998"
     id="namedview63"
     showgrid="false"
     inkscape:zoom="6.4921875"
     inkscape:cx="29.713268"
     inkscape:cy="32.261509"
     inkscape:window-x="0"
     inkscape:window-y="0"
     inkscape:window-maximized="1"
     inkscape:current-layer="svg61" />
  <metadata
     id="metadata2">
    <rdf:RDF>
      <cc:Work
         rdf:about="">
        <dc:format>image/svg+xml</dc:format>
        <dc:type
           rdf:resource="http://purl.org/dc/dcmitype/StillImage" />
        <dc:title></dc:title>
      </cc:Work>
    </rdf:RDF>
  </metadata>
  <defs
     id="defs21">
    <style
       type="text/css"
       id="style4" />
    <linearGradient
       id="linearGradient4312-3"
       x2="0"
       y1="47"
       y2="1"
       gradientTransform="matrix(1.4782953,0,0,1.478182,-3.4778402,-3.4781353)"
       gradientUnits="userSpaceOnUse">
      <stop
         stop-color="#0067e6"
         offset="0"
         id="stop6" />
      <stop
         stop-color="#008de8"
         offset="1"
         id="stop8" />
    </linearGradient>
    <linearGradient
       id="linearGradient4320-6"
       x2="0"
       y1="47"
       y2="1"
       gradientTransform="matrix(1.4782953,0,0,1.478182,-3.4778402,-3.4781353)"
       gradientUnits="userSpaceOnUse">
      <stop
         stop-color="#0066e6"
         offset="0"
         id="stop11" />
      <stop
         stop-color="#007ccc"
         offset="1"
         id="stop13" />
    </linearGradient>
    <linearGradient
       id="linearGradient4328-7"
       x2="0"
       y1="47"
       y2="1"
       gradientTransform="matrix(1.4782953,0,0,1.478182,-3.4778402,-3.4781353)"
       gradientUnits="userSpaceOnUse">
      <stop
         stop-color="#328dff"
         offset="0"
         id="stop16" />
      <stop
         stop-color="#32afff"
         offset="1"
         id="stop18" />
    </linearGradient>
    <linearGradient
       id="linearGradient1124">
      <stop
         stop-color="#2864b4"
         offset="0"
         id="stop888" />
      <stop
         stop-color="#0a4682"
         offset="1"
         id="stop890" />
    </linearGradient>
    <linearGradient
       id="linearGradient1116">
      <stop
         stop-color="#28a0f5"
         offset="0"
         id="stop893" />
      <stop
         stop-color="#057ddc"
         offset="1"
         id="stop895" />
    </linearGradient>
    <linearGradient
       id="linearGradient1108">
      <stop
         stop-color="#50d2ff"
         offset="0"
         id="stop898" />
      <stop
         stop-color="#19a0e6"
         offset="1"
         id="stop900" />
    </linearGradient>
    <linearGradient
       id="linearGradient1110"
       x1="-86.517"
       x2="-86.517"
       y1="3.4395"
       y2="17.991"
       gradientTransform="matrix(3.2779732,0,0,3.2779732,251.43545,1.2320113)"
       gradientUnits="userSpaceOnUse"
       xlink:href="#linearGradient1108" />
    <filter
       id="filter1170"
       x="-.092129"
       y="-.077189"
       width="1.1843"
       height="1.1544"
       color-interpolation-filters="sRGB">
      <feGaussianBlur
         stdDeviation="0.31484797"
         id="feGaussianBlur904" />
    </filter>
    <linearGradient
       id="linearGradient970"
       x1="-86.411"
       x2="-86.411"
       y1="3.4395"
       y2="17.991"
       gradientTransform="matrix(2.9800212,0,0,2.9800212,207.91148,6.5935458)"
       gradientUnits="userSpaceOnUse"
       xlink:href="#linearGradient1116" />
    <linearGradient
       id="linearGradient972"
       x1="-86.411"
       x2="-86.411"
       y1="3.4395"
       y2="17.991"
       gradientTransform="matrix(2.9799894,0,0,2.9799894,207.91333,6.5934902)"
       gradientUnits="userSpaceOnUse"
       xlink:href="#linearGradient1116" />
    <linearGradient
       id="linearGradient974"
       x1="-86.411"
       x2="-86.411"
       y1="3.4395"
       y2="17.991"
       gradientTransform="matrix(2.9800212,0,0,2.9800212,243.47174,6.5935458)"
       gradientUnits="userSpaceOnUse"
       xlink:href="#linearGradient1124" />
    <linearGradient
       id="linearGradient976"
       x1="-86.411"
       x2="-86.411"
       y1="3.4395"
       y2="17.991"
       gradientTransform="matrix(2.9799894,0,0,2.9799894,243.47182,6.5934902)"
       gradientUnits="userSpaceOnUse"
       xlink:href="#linearGradient1124" />
    <linearGradient
       id="linearGradient978"
       x1="-86.517"
       x2="-86.517"
       y1="3.4395"
       y2="17.991"
       gradientTransform="matrix(3.2780233,0,0,3.2780233,251.44179,1.2320077)"
       gradientUnits="userSpaceOnUse"
       xlink:href="#linearGradient1108" />
    <linearGradient
       id="linearGradient1448"
       x1="3.9687"
       x2="3.9687"
       y1="8.9776"
       y2=".54085"
       gradientTransform="matrix(3.46461,0,0,3.46461,2.6662088,2.6662073)"
       gradientUnits="userSpaceOnUse">
      <stop
         stop-color="#dcdcdc"
         offset="0"
         id="stop912" />
      <stop
         stop-color="#f0f0f0"
         offset="1"
         id="stop914" />
    </linearGradient>
  </defs>
  <rect
     x="4.4996166"
     y="4.4996166"
     width="55.000767"
     height="55.000767"
     ry="12.999942"
     fill="url(#linearGradient1448)"
     stroke-opacity="0.95294"
     stroke-width="0.314281"
     id="rect921"
     style="fill:url(#linearGradient1448)" />
  <g
     fill="#5e4aa6"
     id="g39">
    <circle
       cx="-1248.7"
       cy="-1241.6"
       r="0"
       id="circle23" />
    <circle
       cx="-149.15"
       cy="23.855"
       r="0"
       fill-rule="evenodd"
       id="circle25" />
    <circle
       cx="-1124.8"
       cy="-1279.3"
       r="0"
       id="circle27" />
    <g
       transform="matrix(3.7796,0,0,3.7796,123.83,-38.184)"
       stroke-width=".26458"
       id="g37">
      <circle
         cx="-299.02"
         cy="-338.77"
         r="0"
         id="circle29" />
      <circle
         cx="-8.1062"
         cy="-3.9487"
         r="0"
         fill-rule="evenodd"
         id="circle31" />
      <circle
         cx="-278.25"
         cy="-357.69"
         r="0"
         id="circle33" />
      <circle
         cx="12.663"
         cy="-22.859"
         r="0"
         fill-rule="evenodd"
         id="circle35" />
    </g>
  </g>
  <path
     id="path41"
     style="fill:url(#linearGradient4328-7);stroke-width:1.4783"
     d="M 17.5 4.5 C 10.298033 4.5 4.5 10.298033 4.5 17.5 L 4.5 46.5 C 4.5 53.701967 10.298033 59.5 17.5 59.5 L 24.828125 59.5 C 38.674467 55.014696 51.31157 49.258038 59.5 38.835938 L 59.5 20.71875 C 54.385741 14.855843 49.470425 8.8913162 41.482422 4.5 L 17.5 4.5 z " />
  <path
     id="path43"
     style="fill:url(#linearGradient4320-6);stroke-width:1.4783"
     d="M 59.5 32.080078 L 20.011719 59.5 L 46.5 59.5 C 53.701967 59.5 59.5 53.701967 59.5 46.5 L 59.5 32.080078 z " />
  <path
     id="path45"
     style="stroke-width:1.4783;fill:#0066c4;fill-opacity:1"
     d="M 31.828125 4.5 L 59.5 23.558594 L 59.5 20.714844 C 54.387782 14.854107 49.474323 8.8901042 41.490234 4.5 L 31.828125 4.5 z " />
  <path
     id="path47"
     style="fill:url(#linearGradient4312-3);stroke-width:1.4783"
     d="M 32.554688 4.5 L 59.5 23.080078 L 59.5 17.5 C 59.5 10.298033 53.701967 4.5 46.5 4.5 L 32.554688 4.5 z " />
  <path
     id="path49"
     style="stroke-width:1.4783;fill:#000000;fill-opacity:0.09803922"
     d="M 59.5 32.080078 L 20.013672 59.5 L 23.615234 59.5 L 59.5 34.583984 L 59.5 32.080078 z " />
  <path
     d="m 32.741755,26.35376 c 0,9.444249 -5.39673,13.492108 -10.79346,13.492108 H 12.504046 V 12.861652 h 9.444249 c 5.39673,0 10.79346,4.047519 10.79346,13.492108 m -4.047519,0 c 0,-5.39673 -2.630876,-9.444249 -7.015783,-9.444249 h -5.126888 v 18.888951 h 5.126888 c 4.496878,0 7.015783,-4.047519 7.015783,-9.444249 z"
     fill="#ffffff"
     id="path53"
     style="stroke-width:1.13331" />
  <circle
     cx="-1324.8"
     cy="-1249.7"
     r="0"
     fill="#5e4aa6"
     id="circle57" />
  <circle
     cx="-225.26"
     cy="15.747"
     r="0"
     fill="#5e4aa6"
     fill-rule="evenodd"
     id="circle59" />
  <g
     transform="matrix(3.779602,0,0,3.779602,-119.32461,-0.18220235)"
     fill="#5e4aa6"
     stroke-width="0.26458"
     id="g929">
    <circle
       cx="-322.63"
       cy="-345.67001"
       r="0"
       id="circle923" />
    <circle
       cx="-31.726"
       cy="-10.849"
       r="0"
       fill-rule="evenodd"
       id="circle925" />
    <circle
       cx="-306.92001"
       cy="-328.72"
       r="0"
       id="circle927" />
  </g>
</svg>

<?xml version="1.0" encoding="UTF-8"?>
<svg id="svg61" width="64" height="64" version="1.1" viewBox="0 0 64 64" xmlns="http://www.w3.org/2000/svg" xmlns:cc="http://creativecommons.org/ns#" xmlns:dc="http://purl.org/dc/elements/1.1/" xmlns:rdf="http://www.w3.org/1999/02/22-rdf-syntax-ns#" xmlns:xlink="http://www.w3.org/1999/xlink">
 <metadata id="metadata2">
  <rdf:RDF>
   <cc:Work rdf:about="">
    <dc:format>image/svg+xml</dc:format>
    <dc:type rdf:resource="http://purl.org/dc/dcmitype/StillImage"/>
    <dc:title/>
   </cc:Work>
  </rdf:RDF>
 </metadata>
 <defs id="defs21">
  <style id="style4" type="text/css"/>
  <linearGradient id="linearGradient4312-3" x2="0" y1="47" y2="1" gradientTransform="matrix(1.4783 0 0 1.4782 -3.4778 -3.4781)" gradientUnits="userSpaceOnUse">
   <stop id="stop6" stop-color="#0067e6" offset="0"/>
   <stop id="stop8" stop-color="#008de8" offset="1"/>
  </linearGradient>
  <linearGradient id="linearGradient4320-6" x2="0" y1="47" y2="1" gradientTransform="matrix(1.4783 0 0 1.4782 -3.4778 -3.4781)" gradientUnits="userSpaceOnUse">
   <stop id="stop11" stop-color="#0066e6" offset="0"/>
   <stop id="stop13" stop-color="#007ccc" offset="1"/>
  </linearGradient>
  <linearGradient id="linearGradient4328-7" x2="0" y1="47" y2="1" gradientTransform="matrix(1.4783 0 0 1.4782 -3.4778 -3.4781)" gradientUnits="userSpaceOnUse">
   <stop id="stop16" stop-color="#328dff" offset="0"/>
   <stop id="stop18" stop-color="#32afff" offset="1"/>
  </linearGradient>
  <linearGradient id="linearGradient1448" x1="3.9687" x2="3.9687" y1="8.9776" y2=".54085" gradientTransform="matrix(3.4646 0 0 3.4646 2.6662 2.6662)" gradientUnits="userSpaceOnUse">
   <stop id="stop912" stop-color="#dcdcdc" offset="0"/>
   <stop id="stop914" stop-color="#f0f0f0" offset="1"/>
  </linearGradient>
 </defs>
 <rect id="rect921" x="4.4996" y="4.4996" width="55.001" height="55.001" ry="13" fill="url(#linearGradient1448)" stroke-opacity=".95294" stroke-width=".31428"/>
 <g id="g39" fill="#5e4aa6">
  <circle id="circle23" cx="-1248.7" cy="-1241.6" r="0"/>
  <circle id="circle25" cx="-149.15" cy="23.855" r="0" fill-rule="evenodd"/>
  <circle id="circle27" cx="-1124.8" cy="-1279.3" r="0"/>
  <g id="g37" transform="matrix(3.7796,0,0,3.7796,123.83,-38.184)" stroke-width=".26458">
   <circle id="circle29" cx="-299.02" cy="-338.77" r="0"/>
   <circle id="circle31" cx="-8.1062" cy="-3.9487" r="0" fill-rule="evenodd"/>
   <circle id="circle33" cx="-278.25" cy="-357.69" r="0"/>
   <circle id="circle35" cx="12.663" cy="-22.859" r="0" fill-rule="evenodd"/>
  </g>
 </g>
 <path id="path41" d="m17.5 4.5c-7.202 0-13 5.798-13 13v29c0 7.202 5.798 13 13 13h7.3281c13.846-4.4853 26.483-10.242 34.672-20.664v-18.117c-5.1143-5.8629-10.03-11.827-18.018-16.219h-23.982z" fill="url(#linearGradient4328-7)" stroke-width="1.4783"/>
 <path id="path43" d="m59.5 32.08-39.488 27.42h26.488c7.202 0 13-5.798 13-13v-14.42z" fill="url(#linearGradient4320-6)" stroke-width="1.4783"/>
 <path id="path45" d="m31.828 4.5 27.672 19.059v-2.8438c-5.1122-5.8607-10.026-11.825-18.01-16.215h-9.6621z" fill="#0066c4" stroke-width="1.4783"/>
 <path id="path47" d="m32.555 4.5 26.945 18.58v-5.5801c0-7.202-5.798-13-13-13h-13.945z" fill="url(#linearGradient4312-3)" stroke-width="1.4783"/>
 <path id="path49" d="m59.5 32.08-39.486 27.42h3.6016l35.885-24.916v-2.5039z" fill-opacity=".098039" stroke-width="1.4783"/>
 <path id="path53" d="m32.742 26.354c0 9.4442-5.3967 13.492-10.793 13.492h-9.4442v-26.984h9.4442c5.3967 0 10.793 4.0475 10.793 13.492m-4.0475 0c0-5.3967-2.6309-9.4442-7.0158-9.4442h-5.1269v18.889h5.1269c4.4969 0 7.0158-4.0475 7.0158-9.4442z" fill="#fff" stroke-width="1.1333"/>
 <circle id="circle57" cx="-1324.8" cy="-1249.7" r="0" fill="#5e4aa6"/>
 <circle id="circle59" cx="-225.26" cy="15.747" r="0" fill="#5e4aa6" fill-rule="evenodd"/>
 <g id="g929" transform="matrix(3.7796 0 0 3.7796 -119.32 -.1822)" fill="#5e4aa6" stroke-width=".26458">
  <circle id="circle923" cx="-322.63" cy="-345.67" r="0"/>
  <circle id="circle925" cx="-31.726" cy="-10.849" r="0" fill-rule="evenodd"/>
  <circle id="circle927" cx="-306.92" cy="-328.72" r="0"/>
 </g>
</svg>
